X:1
T:Air
T:Orchestral Suite no. 3
T:II. Air
T:Johann Sebastian Bach (1685 – 1750)
%%score [ 1 2 3 4 ]
L:1/8
Q:1/4=30
M:4/4
K:D
V:1 treble nm="Violin" snm="Vln."
V:2 treble nm="Violin" snm="Vln."
V:3 alto nm="Viola" snm="Vla."
V:4 bass nm="Violoncello" snm="Vc."
V:1
"^Larghissimo" f8- | fb/g/{/f} e/d/c/d/ c2{/B} A2 | a4- a/f/(=c/B/) (e/^d/)(a/g/) | %3
 g4- g/e/(B/A/) (d/c/)(g/f/) | f3 ^g/a/ dd/4e/4(f/ f/)e/(e/d/) |1 c/B/B/4c/4(d/ d)c/B/ A4 :|2 %6
 c/B/B/4c/4(d/ d)c/B/ A4 |: c2- c/d/4c/4B/4c/4A/ a3 =c | Bb- b/a/g/f/ g2- g/4(f/4e/4d/4)c/B/ | %9
 ^A/B/(c c/)d/(e e/)f/(g g)f | e/d/c/B/ (c/d/4e/4)d B4 | d2- d/f/e/d/ b2- ba/^g/ | %12
{/f} e/a/A B3/2c/4d/4 c>B A2 | d3 (f/e/) e3 (g/f/) | f3 (a/g/) g4 | A2- A/c/e/g/ g/e/f- ff/g/4a/4 | %16
 d2- d/f/a/=c'/ b3 d | c/e/ g2 d Ae/f/4g/4- g/fe/ | d/4c/4Bc/ (dTc/)d/ d4 :| %19
V:2
 d8 | d2 B2 A4- | A=c/B/ ca/c/ B z z2 | Be/d/ e/f/g/e/ A z z2 | A4- A^G/A/ BG |1 A(AA)^G E4 :|2 %6
 A(AA)^G E4 |: A4- A/B/=c- c/B/A/G/ | F3 ^d e4- | e4- e/d/c/B/ ^A/B/c | BBB^A F4 | %11
 E2 F2 B,E/F/ ^G/A/B- | B A2 ^G A4- | AB/=c/ B/^c/d- dc/B/ c/^d/e- | e^d/c/ d/e/f- f/d/e/B/ E2- | %15
 E/C/E/A/ cA- Ac/d/ D2- | DE F2 G4- | GB e2- e/d/c/B/ AB | A2 (TG/F/G) F4 :| %19
V:3
 A4 B4 | B,2 E2 E4 | E(^DD)E F z z2 | E(B,B,)E E z z2 | D3 E FDB,(E |1 E)FB,E C4 :|2 EFB,E C4 |: %7
 E4- E^D/E/ F2- | F/G/A/G/ ^DB B2 B,2 | (C/D/E/F/) (G/F/G/E/) FE/D/ CF | FE/D/ FF/E/ D4 | %11
 B,B A/^G/A G>F E2- | EEFE E>D C/D/F/C/ | A, D2 B,- B, E2 C- | C F2 ^D B,2- B,/B/G/E/ | %15
 AGFE D2 A2- | AG A2 D4 | (E/B,/E/G/) (B/A/G/F/) EA-AG | F2 EA, A,4 :| %19
V:4
 D,DCC, B,,B,A,A,, | G,,G,^G,^G,, A,,A,=G,=G,, | F,,F,E,E,, ^D,,^D,B,,B, | E,,E,D,D,, C,,C,A,,A, | %4
 D,DCC, B,,B,^G,E, |1 A,D,E,E,, (A,,/B,,/C,/D,/ E,/G,/F,/E,/) :|2 A,D,E,E,, A,,4 |: %7
 A,,A,G,G,, F,,F,E,E,, | ^D,,^D,F,B,, E,ED=D, | C,CB,B,, ^A,,B,,C,A,, | B,,G,E,F, B,,B,A,A,, | %11
 ^G,,^G,F,F,, E,,E,D,D,, | C,,C,D,E, A,,A,G,G,, | F,,F,G,G,, ^G,,^G,A,A,, | ^A,,^A,B,B,, E,EDD, | %15
 C,CA,C DD,=C,=C | B,B,,A,,A, G,G,,F,,F, | E,E,,D,,D, C,A,,D,G, | A,G,A,A,, D,,4 :| %19

